X: 1
T: The Red-Haired Girl of Tulloch
R: reel
S: MacDonald - Skye Collection
M: C
L: 1/8
K: Ador
|:e2 | "Am"A2cd edeg | "G"G2BA GBdB | "Am"A2cd edef | "G"gedB "Am"A2 :|
  e2 | "Am"ceAe ceAe | "G"BdGd BdGd | "Am"ceAe ceAe | "G"gedB "Am"A2 ||
  e2 | "Am"ceAe ceAe | "G"BdGd BdGd | "Am"A2cd edef | "G"gedB "Am"A2 |]
